icons/1_Primary/You Need A Budget.svg

<svg width="1024" height="1024" viewBox="0 0 1024 1024" fill="none" xmlns="http://www.w3.org/2000/svg">
<g clip-path="url(#clip0_2_4005)">
<path d="M512 1024C794.77 1024 1024 794.77 1024 512C1024 229.23 794.77 0 512 0C229.23 0 0 229.23 0 512C0 794.77 229.23 1024 512 1024Z" fill="#9ABEFF"/>
<path d="M678 471.6C678 471.6 680.91 473 679.77 474.74L560.05 658.62C558.793 660.722 558.059 663.096 557.91 665.54V764.22C557.882 765.219 557.47 766.169 556.761 766.872C556.052 767.576 555.099 767.98 554.1 768H469.9C468.9 767.982 467.946 767.579 467.236 766.875C466.526 766.171 466.115 765.22 466.09 764.22V665.58C465.97 663.105 465.235 660.699 463.95 658.58L343.81 474.75C342.71 473.01 343.31 471.61 345.48 471.61H443.79C444.926 471.681 446.03 472.013 447.015 472.583C448.001 473.152 448.841 473.942 449.47 474.89L510.16 577.65C511.3 579.39 512.94 579.39 514.07 577.65L574.4 474.88C575.057 473.936 575.917 473.151 576.917 472.584C577.917 472.016 579.032 471.68 580.18 471.6H678ZM631.45 592.6C632.814 591.914 634.336 591.603 635.86 591.7C679.23 591.6 672.04 633.26 670.17 648.38C655.39 644.7 613.66 636.91 629.04 596.38C629.597 594.978 630.426 593.7 631.48 592.62L631.45 592.6ZM388.09 591.7C389.615 591.581 391.143 591.893 392.5 592.6C393.49 593.704 394.261 594.987 394.77 596.38C410.15 636.91 368.42 644.7 353.64 648.38C351.93 633.28 344.74 591.61 388.11 591.71L388.09 591.7ZM654.53 555.22C654.66 553.68 655.8 551.54 658.21 548.8C704.59 494.8 744.31 550.8 759.7 570.07C739.64 584.28 685.93 627.07 656.31 562.38C655.238 560.143 654.639 557.709 654.55 555.23L654.53 555.22ZM369.53 555.09C369.439 557.573 368.836 560.011 367.76 562.25C338.13 626.99 284.4 584.32 264.37 569.94C279.62 550.81 319.37 494.8 365.86 548.67C367.579 550.499 368.856 552.699 369.59 555.1L369.53 555.09ZM697.36 494.3C697.532 492.458 698.138 490.683 699.13 489.12C724.98 443.31 764.67 475.91 779.45 486.98C766.84 500.36 733.54 539.48 700 499.08C698.844 497.669 697.969 496.05 697.42 494.31L697.36 494.3ZM326.53 494.17C325.952 495.921 325.042 497.544 323.85 498.95C290.38 539.48 257.07 500.32 244.43 486.74C259.18 475.74 298.9 443.17 324.75 488.98C326.22 491.4 326.72 493.17 326.58 494.17H326.53ZM661.82 438.53C660.973 436.189 660.709 433.677 661.05 431.21C666.23 360.32 731.54 381.72 755.11 388.07C747.55 411.34 729.9 477.68 667.5 443.18C665.3 442.034 663.365 440.44 661.82 438.5V438.53ZM362.08 438.66C361.44 439.9 359.08 441.54 356.4 443.31C294.04 477.68 276.4 411.44 268.69 388.1C292.4 381.71 357.6 360.31 362.89 431.3C363.22 433.767 362.956 436.276 362.12 438.62L362.08 438.66ZM655.27 372.79C653 372.69 650.86 372.46 649.95 371.79C649.21 371.29 648.18 369.79 647.17 367.14C628.51 318.05 679.07 308.62 696.99 304.21C699.13 322.47 707.82 373.09 655.26 372.83L655.27 372.79ZM374 371.92C372.302 372.573 370.499 372.912 368.68 372.92C315.98 373.19 324.81 322.56 326.95 304.44C344.87 308.72 395.3 318.15 376.77 367.44C376.25 369.148 375.296 370.692 374 371.92ZM511.8 330.79C509.563 330.343 507.43 329.482 505.51 328.25C450.14 292.87 496.28 249.34 511.8 232.95C527.45 249.33 573.59 292.74 518.12 328.25C516.256 329.602 514.083 330.465 511.8 330.76V330.79ZM584.19 357.07C582.205 357.518 580.156 357.61 578.14 357.34C576.393 356.318 574.923 354.883 573.86 353.16C540.32 304.67 592.75 280.8 611.04 271.24C618.37 290.47 641.44 343.13 584.19 357.08V357.07ZM445.86 357.34C444.72 357.84 442.35 357.57 439.86 357.07C382.58 343.07 405.79 290.46 412.98 271.07C431.27 280.63 483.7 304.54 450.16 352.99C448.5 355.57 447 356.94 445.86 357.34ZM507.02 426.34C463.65 396.61 499.7 360 511.94 346.26C524.18 359.97 560.22 396.62 516.86 426.34C515.447 427.491 513.745 428.232 511.94 428.48C510.174 428.075 508.499 427.346 507 426.33L507.02 426.34ZM576.91 457.54C574.384 457.508 571.887 456.999 569.55 456.04C568.31 455.27 566.77 453.26 565.55 450.04C536.93 384.84 604.64 373.37 628.55 367.95C632.73 391.95 648.11 458.95 576.85 457.56L576.91 457.54ZM511.8 523.4C510.04 522.987 508.372 522.251 506.88 521.23C463.51 491.4 499.69 454.89 511.8 441.18C524.04 454.89 560.12 491.4 516.72 521.23C515.307 522.381 513.605 523.122 511.8 523.37V523.4ZM454.55 456C452.23 456.936 449.76 457.444 447.26 457.5C376.04 458.9 391.42 392.06 395.66 367.89C419.66 373.31 487.35 384.74 458.72 449.95C457.838 452.273 456.407 454.349 454.55 456Z" fill="white"/>
</g>
<defs>
<clipPath id="clip0_2_4005">
<rect width="1024" height="1024" fill="white"/>
</clipPath>
</defs>
</svg>

<svg width="1024" height="1024" fill="none" xmlns="http://www.w3.org/2000/svg"><g clip-path="url(#a)"><path d="M512 1024c282.77 0 512-229.23 512-512S794.77 0 512 0 0 229.23 0 512s229.23 512 512 512Z" fill="#9ABEFF"/><path d="M678 471.6s2.91 1.4 1.77 3.14L560.05 658.62a15.3 15.3 0 0 0-2.14 6.92v98.68a3.89 3.89 0 0 1-3.81 3.78h-84.2a3.882 3.882 0 0 1-3.81-3.78v-98.64a14.89 14.89 0 0 0-2.14-7L343.81 474.75c-1.1-1.74-.5-3.14 1.67-3.14h98.31a7.364 7.364 0 0 1 5.68 3.28l60.69 102.76c1.14 1.74 2.78 1.74 3.91 0l60.33-102.77a7.686 7.686 0 0 1 5.78-3.28H678Zm-46.55 121a8.6 8.6 0 0 1 4.41-.9c43.37-.1 36.18 41.56 34.31 56.68-14.78-3.68-56.51-11.47-41.13-52a11.42 11.42 0 0 1 2.44-3.76l-.03-.02Zm-243.36-.9a8.17 8.17 0 0 1 4.41.9 11.654 11.654 0 0 1 2.27 3.78c15.38 40.53-26.35 48.32-41.13 52-1.71-15.1-8.9-56.77 34.47-56.67l-.02-.01Zm266.44-36.48c.13-1.54 1.27-3.68 3.68-6.42 46.38-54 86.1 2 101.49 21.27-20.06 14.21-73.77 57-103.39-7.69a18.043 18.043 0 0 1-1.76-7.15l-.02-.01Zm-285-.13a18.06 18.06 0 0 1-1.77 7.16c-29.63 64.74-83.36 22.07-103.39 7.69 15.25-19.13 55-75.14 101.49-21.27a16.384 16.384 0 0 1 3.73 6.43l-.06-.01Zm327.83-60.79a11.694 11.694 0 0 1 1.77-5.18c25.85-45.81 65.54-13.21 80.32-2.14-12.61 13.38-45.91 52.5-79.45 12.1a14.328 14.328 0 0 1-2.58-4.77l-.06-.01Zm-370.83-.13a14.345 14.345 0 0 1-2.68 4.78c-33.47 40.53-66.78 1.37-79.42-12.21 14.75-11 54.47-43.57 80.32 2.24 1.47 2.42 1.97 4.19 1.83 5.19h-.05Zm335.29-55.64a15.34 15.34 0 0 1-.77-7.32c5.18-70.89 70.49-49.49 94.06-43.14-7.56 23.27-25.21 89.61-87.61 55.11a17.734 17.734 0 0 1-5.68-4.68v.03Zm-299.74.13c-.64 1.24-3 2.88-5.68 4.65-62.36 34.37-80-31.87-87.71-55.21 23.71-6.39 88.91-27.79 94.2 43.2.33 2.467.066 4.976-.77 7.32l-.04.04Zm293.19-65.87c-2.27-.1-4.41-.33-5.32-1-.74-.5-1.77-2-2.78-4.65-18.66-49.09 31.9-58.52 49.82-62.93 2.14 18.26 10.83 68.88-41.73 68.62l.01-.04ZM374 371.92a15.007 15.007 0 0 1-5.32 1c-52.7.27-43.87-50.36-41.73-68.48 17.92 4.28 68.35 13.71 49.82 63a10.306 10.306 0 0 1-2.77 4.48Zm137.8-41.13a18.277 18.277 0 0 1-6.29-2.54c-55.37-35.38-9.23-78.91 6.29-95.3 15.65 16.38 61.79 59.79 6.32 95.3a13.77 13.77 0 0 1-6.32 2.51v.03Zm72.39 26.28c-1.985.448-4.034.54-6.05.27a12.365 12.365 0 0 1-4.28-4.18c-33.54-48.49 18.89-72.36 37.18-81.92 7.33 19.23 30.4 71.89-26.85 85.84v-.01Zm-138.33.27c-1.14.5-3.51.23-6-.27-57.28-14-34.07-66.61-26.88-86 18.29 9.56 70.72 33.47 37.18 81.92-1.66 2.58-3.16 3.95-4.3 4.35Zm61.16 69c-43.37-29.73-7.32-66.34 4.92-80.08 12.24 13.71 48.28 50.36 4.92 80.08a9.932 9.932 0 0 1-4.92 2.14 14.635 14.635 0 0 1-4.94-2.15l.02.01Zm69.89 31.2a20.056 20.056 0 0 1-7.36-1.5c-1.24-.77-2.78-2.78-4-6-28.62-65.2 39.09-76.67 63-82.09 4.18 24 19.56 91-51.7 89.61l.06-.02ZM511.8 523.4a14.63 14.63 0 0 1-4.92-2.17c-43.37-29.83-7.19-66.34 4.92-80.05 12.24 13.71 48.32 50.22 4.92 80.05a9.932 9.932 0 0 1-4.92 2.14v.03ZM454.55 456a20.725 20.725 0 0 1-7.29 1.5c-71.22 1.4-55.84-65.44-51.6-89.61 24 5.42 91.69 16.85 63.06 82.06a15.42 15.42 0 0 1-4.17 6.05Z" fill="#fff"/></g><defs><clipPath id="a"><path fill="#fff" d="M0 0h1024v1024H0z"/></clipPath></defs></svg>
